common/src/main/resources/icons/plugins/resharper/UnitTestingNunit/Nunit.svg

<!--
  - The MIT License (MIT)
  -
  - Copyright (c) 2015-2024 Elior "Mallowigi" Boukhobza
  -
  - Permission is hereby granted, free of charge, to any person obtaining a copy
  - of this software and associated documentation files (the "Software"), to deal
  - in the Software without restriction, including without limitation the rights
  - to use, copy, modify, merge, publish, distribute, sublicense, and/or sell
  - copies of the Software, and to permit persons to whom the Software is
  - furnished to do so, subject to the following conditions:
  -
  - The above copyright notice and this permission notice shall be included in all
  - copies or substantial portions of the Software.
  -
  - THE SOFTWARE IS PROVIDED "AS IS", WITHOUT WARRANTY OF ANY KIND, EXPRESS OR
  - IMPLIED, INCLUDING BUT NOT LIMITED TO THE WARRANTIES OF MERCHANTABILITY,
  - FITNESS FOR A PARTICULAR PURPOSE AND NONINFRINGEMENT. IN NO EVENT SHALL THE
  - AUTHORS OR COPYRIGHT HOLDERS BE LIABLE FOR ANY CLAIM, DAMAGES OR OTHER
  - LIABILITY, WHETHER IN AN ACTION OF CONTRACT, TORT OR OTHERWISE, ARISING FROM,
  - OUT OF OR IN CONNECTION WITH THE SOFTWARE OR THE USE OR OTHER DEALINGS IN THE
  - SOFTWARE.
  -->

<svg data-big="true" width='16px' height='16px' viewBox='0,0,16,16' xmlns='http://www.w3.org/2000/svg'>
  <defs>
    <mask id="qunit">
      <circle fill='white' cx="8" cy="8" r="7"/>
      <circle fill='black' cx="8" cy="8" r="6"/>
    </mask>
  </defs>
  <g fill='#AED581'>
    <path mask="url(#qunit)"
          d='M8,14.85C6.2708943397548138,14.852488747961807,4.6032029605273008,14.201139317524213,3.3334941716069242,13.027405033498773C2.0637853826865475,11.853670749473334,1.2836359989519586,10.242206335984882,1.150493352893653,8.51823255023321C1.0173507068353473,6.7942587644815369,1.5408176141201382,5.0821159509701079,2.6152496047049922,3.7273434697887744C3.6896815952898425,2.3725709886074431,5.237586050111176,1.4728808110321765,6.9465696859812063,1.2098456223466938C8.6555533218512366,0.94681043366121109,10.402356947829192,1.3394014538736094,11.834446065998298,2.3083871791451385C13.266535184167404,3.2773729044166675,14.280621417532322,4.7528659502087844,14.672045023116237,6.4370868796447205C15.063468628700152,8.1213078090806565,14.803998466118367,9.892783423254027,13.945999999999998,11.393999999999997C13.35409866425691,12.448658226537828,12.49022384487847,13.325662612987342,11.4446132246153,13.933404002766945C10.399002604352127,14.541145392546548,9.2093766510504942,14.857699477402509,8,14.849999999999998ZM8,14.85'
    />
    <path
      d='M6.625,5.589L6.625,5.7890000000000006C6.8710528160080964,5.4461455597219066,7.1909326401271763,5.1628331941292611,7.5610000000000008,4.9600000000000026C7.9251437555197972,4.7756902709080862,8.3289413702666231,4.6833250001879358,8.737,4.6910000000000025C9.1387296115541563,4.6842053961886148,9.53551917729546,4.7809917399154438,9.889,4.9720000000000022C10.218508834188075,5.1502973348616683,10.483748041330134,5.4277837349456446,10.646999999999998,5.7650000000000023C10.856719306109788,6.2443875790665668,10.943682468871835,6.7685726510512376,10.899999999999999,7.29L10.899999999999999,10.321C10.919914531293482,10.587335531142354,10.838835915964465,10.851644673624612,10.672999999999996,11.061C10.601187621926378,11.143203787953231,10.511957014813394,11.208387511397609,10.411808944144918,11.251802305417966C10.311660873476441,11.295217099438323,10.203087917411198,11.315782416335457,10.093999999999996,11.311999999999998C9.9827621320086024,11.315558239364163,9.8721117458914076,11.294344970710409,9.7700769186827934,11.249899291739878C9.66804209147418,11.205453612769347,9.5771516440586879,11.138877060714796,9.5039999999999942,11.055C9.3403773962920447,10.846798546821084,9.2594811220253153,10.585222047650246,9.2769999999999939,10.321L9.2769999999999939,7.606C9.2998961464380709,7.1841474780223553,9.2220793786500614,6.7628399555048944,9.0499999999999936,6.377C8.9598707102578317,6.2264907989701141,8.8276712791351351,6.1055682890027043,8.6697435095993818,6.0291802789910349C8.5118157400636285,5.9527922689793655,8.3349466944214416,5.9242215899603865,8.1609999999999943,5.947C7.8748019837767531,5.94584146416597,7.5959143823038691,6.0382185916059807,7.3669999999999938,6.21C7.1239984712456135,6.3878440888071157,6.940833555322123,6.6355528322465016,6.8419999999999934,6.92C6.7418913601181263,7.3663391217785055,6.701870183673341,7.8240603078402895,6.7229999999999936,8.2809999999999953L6.7229999999999936,10.320999999999994C6.7431790396040707,10.590178929649065,6.65979354280125,10.857155670485565,6.489999999999994,11.066999999999995C6.4148508271467737,11.147862475546731,6.3231634241887535,11.21160328315726,6.2211877761911234,11.253877451954924C6.1192121281934932,11.296151620752589,6.0093192072347055,11.315976260451057,5.8989999999999938,11.311999999999996C5.7896354402676256,11.314681952216933,5.6810305082586474,11.293013166598573,5.58106899754437,11.248566612526654C5.4811074868300924,11.204120058454734,5.3922681613859105,11.137997885309318,5.3209999999999953,11.054999999999994C5.1569500723903534,10.847024596905733,5.0760007917295091,10.585276702610317,5.093999999999995,10.320999999999994L5.093999999999995,5.613C5.0732614388369681,5.3656532449439407,5.1445061254861191,5.1191466291378793,5.293999999999996,4.921C5.3633521484778823,4.843330775975657,5.4491685231451141,4.7821056341634671,5.545177028861354,4.7417993605925055C5.6411855345775939,4.7014930870215439,5.74498876070038,4.6831121621957621,5.8489999999999958,4.6880000000000015C5.9443004977906648,4.6852217311041251,6.0392049273825537,4.701479622703336,6.1281466904400421,4.7358200717602816C6.2170884534975306,4.7701605208172273,6.2982939195705407,4.8218987279303329,6.3669999999999947,4.8880000000000026C6.453427578865556,4.9820246891087114,6.5201657325382323,5.0924058036804114,6.5632722214554509,5.2126231034495465C6.6063787103726694,5.3328404032186816,6.6249877161075883,5.4604792551223476,6.6179999999999941,5.5880000000000027ZM6.625,5.589'
    />
    <path
      d='M9,1.5C9,2.0522847498307937,8.5522847498307932,2.5,8,2.5C7.4477152501692068,2.5,7,2.0522847498307937,7,1.5C7,0.94771525016920644,7.4477152501692068,0.5,8,0.5C8.5522847498307932,0.5,9,0.94771525016920644,9,1.5Z'
    />
    <path
      d='M3.352,11.22C3.352,11.772284749830794,2.9042847498307935,12.22,2.352,12.22C1.7997152501692062,12.22,1.3519999999999999,11.772284749830794,1.3519999999999999,11.22C1.3519999999999999,10.667715250169207,1.7997152501692062,10.22,2.352,10.22C2.9042847498307935,10.22,3.352,10.667715250169207,3.352,11.22Z'
    />
    <path
      d='M14.643,11.22C14.643,11.772284749830794,14.195284749830794,12.22,13.643,12.22C13.090715250169207,12.22,12.643,11.772284749830794,12.643,11.22C12.643,10.667715250169207,13.090715250169207,10.22,13.643,10.22C14.195284749830794,10.22,14.643,10.667715250169207,14.643,11.22Z'
    />
  </g>
</svg>

<svg xmlns="http://www.w3.org/2000/svg" width="16" height="16" data-big="true"><defs><mask id="a"><circle cx="8" cy="8" r="7" fill="#fff"/><circle cx="8" cy="8" r="6"/></mask></defs><g fill="#AED581"><path d="M8 14.85a6.86 6.86 0 0 1-6.85-6.332A6.86 6.86 0 0 1 6.947 1.21a6.86 6.86 0 0 1 7.725 5.227 6.86 6.86 0 0 1-.726 4.957A6.77 6.77 0 0 1 8 14.85m0 0" mask="url(#a)"/><path d="M6.625 5.589v.2c.246-.343.566-.626.936-.829a2.5 2.5 0 0 1 1.176-.269 2.34 2.34 0 0 1 1.152.281c.33.178.595.456.758.793.21.48.297 1.004.253 1.525v3.031c.02.266-.061.53-.227.74a.74.74 0 0 1-.579.251.75.75 0 0 1-.59-.257 1.07 1.07 0 0 1-.227-.734V7.606a2.66 2.66 0 0 0-.227-1.229.9.9 0 0 0-.889-.43 1.3 1.3 0 0 0-.794.263 1.5 1.5 0 0 0-.525.71c-.1.446-.14.904-.119 1.361v2.04c.02.27-.063.536-.233.746a.77.77 0 0 1-.591.245.74.74 0 0 1-.578-.257 1.07 1.07 0 0 1-.227-.734V5.613a1 1 0 0 1 .2-.692.7.7 0 0 1 .555-.233.72.72 0 0 1 .518.2.96.96 0 0 1 .251.7ZM9 1.5a1 1 0 1 1-2 0 1 1 0 0 1 2 0M3.352 11.22a1 1 0 1 1-2 0 1 1 0 0 1 2 0M14.643 11.22a1 1 0 1 1-2 0 1 1 0 0 1 2 0"/></g></svg>
